X:9
T:Derwydd, Y 
T: Druid, the
R:jig
O:Wales
Z: John Chambers <jc@trillian.mit.edu>
M:6/8
L:1/8
K:D
r:32
AG \
| FGA AFA | BGB A3 | Bcd efg | fed cBA \
| FGA AFA | BGB A3 | Bcd efg | ABc d :|
|: fg \
| afa afa | geg geg | fag fed | ced cBA \
| afa afa | geg geg | fed cde | dAF D :|
W: Yes, it's severn stars but welsh 
